X:1
T:First Fruits, 87.87.87
T:John Bacchus Dykes, 1875
T:First Fruits, 87.87.87
T:Public Domain
C:John Bacchus Dykes, 1875
Z:Public Domain
%%score ( 1 2 ) ( 3 4 )
L:1/8
M:none
K:G
V:1 treble 
V:2 treble 
V:3 bass 
V:4 bass 
V:1
 [GB]3 [Gc] [DB]2 [DA]2 | G2 [GA]2 (Bc) [Gd]2 | [Gd]3 [Gd] [Ee]2 [Fd]2 | [DB]2 (AG) [FA]4 | %4
 [GB]3 [Gc] [DB]2 [DA]2 | G2 [GA]2 (Bc) [Gd]2 | [Ee]2 [Fd]2 [DB]2 [DG]2 | (DE)(BA) G4 | %8
 [GB]2 [Ge]2 [Fd]2 [FB]2 | [EG]2 [Ec]2 [DB]2 [DG]2 | E2 [EA]2 [B,D]2 (DE) | F2 (AG) G4 |] %12
V:2
 x8 | G2 G2 x4 | x8 | x2 E2 x4 | x8 | G2 G2 x4 | x8 | A2 F2 G4 | x8 | x8 | E2 x2 G2 x2 | %11
 F2 F2 G4 |] %12
V:3
 [G,D]3 [G,E] [G,D]2 [G,C]2 | [G,B,]2 [G,C]2 (G,A,) [B,D]2 | [G,B,]3 [G,B,] [C,C]2 [D,A,]2 | %3
 [G,B,]2 [E,^C]2 [D,D]2 [A,=C]2 | [G,D]3 [G,E] [G,D]2 [G,C]2 | %5
 [G,B,]2 [G,C]2 ([G,D][E,C]) [D,B,]2 | [C,C]2 [D,A,]2 G,2 [G,B,]2 | (F,E,)(DC) [G,B,]4 | %8
 [E,E]2 [E,B,]2 B,2 [B,D]2 | C2 [C,G,]2 G,2 [G,B,]2 | [C,B,]2 [C,C]2 (G,A,) [D,B,]2 | %11
 (A,B,) [D,C]2 [G,B,]4 |] %12
V:4
 x8 | x4 D2 x2 | x8 | x8 | x8 | x8 | x4 G,2 x2 | C2 D,2 x4 | x4 B,2 x2 | C2 G,2 x4 | x4 D,2 x2 | %11
 D,2 x6 |] %12

